X:1
T:Jungfrau, ihr habt entzündet
T:Gemignano Capilupi
T:Source : Canzonette mit 3 Stimmen/ H.Vecchi und G.Capilupi---Nürnberg---P.Kauffmann---1606. Editor : André Vierendeels (25/02/17).
T:Notes : Original clefs : G2, G2, C4 Editorial accidentals above the staff Text Middle German by Valentin Hauszmann German Contrafactum of "La fiamma" 1597
T:Jungfrau, ihr habt entzündet
T:©
T:©
C:Gemignano Capilupi
Z:©
%%score [ 1 2 3 ]
L:1/8
Q:1/4=120
M:4/4
K:C
V:1 treble nm="Soprano 1" snm="S 1"
V:2 treble nm="Soprano 2" snm="S 2"
V:3 treble-8 nm="Tenor" snm="T"
V:1
"^1)" e4 f4- | f2 e2 d2 c2 | B4 B4 | z4 e2 ef | g2 e2 d4 | d4 z2 d2 | d3 d d4- | d2 c2 B4 | %8
w: Jung- frau,|_ ihr habt ent-|zün- det|mein Hertz mit|Lie- bes flam-|men, das|sag ich euch|_ mit Na-|
w: Ausz ei-|* nem treu- en|g'mü- the,|gegn euch al-|lein ich bren-|ne, wel-|ches ich frey|_ be- ken-|
[M:2/4] A4 ::[M:4/4] z2 e2 e3 e | e2 f2 g4 | g2 e4 dc | B2 A2 B4 | A2 c2 c2 d2 | e2 f2 e4 | %15
w: men,|ich fül dasz|feur so seh-|re, drumb eu- re|hülff be- ge-|re, drumb eu- re|hülff be- ge-|
w: ne,|und klag es|euch al- lei-|ne, die brunst ist|nicht so klei-|ne, die brunst ist|nicht so klei-|
 d2 a4 gf | e2 d4 c2 | B4 !fermata!A4 :| %18
w: re, drumb eu- re|hülff be- *|ge- re.|
w: ne, die brunst ist|nicht so _|klei- ne.|
V:2
"^2)""^1)" z2 ^c2 d4- |"^-natural" d2 c2 B2 A2 | ^G4 G4 | c2 cd e4- | e2 c2 B4 | B2 B2 B3 B | %6
w: Jung- frau|_ ihr habt ent-|zün- det|mein Hertz mit Lie-|* bes flam-|men, das sag ich|
w: Das mögt|_ ihr mir wol|glau- ben,|wenn ich eins weh-|* len sol-|te, viel liebr ich|
 B4 A4 | ^G2 A4 G2 |[M:2/4] A4 ::[M:4/4] z2 ^c2 c3 c | ^c2 d2 e4 | e2 c4 BA | ^G2 A4 G2 | %13
w: euch mit|Na- * *|men,|ich fül dasz|feur so seh-|re, drumb eu- re|hülff be- ge-|
w: ster- ben|wol- * *|te,|als dasz ich|lang solt tra-|gen, solch un- er-|hör- te pla-|
 A2 A2 A2 B2 | ^c2 d4 c2 |"^-natural" d4 z2 c2- | c2 BA ^G2 A2- | A2 ^G2 !fermata!A4 :| %18
w: re, drmb eu- re|hülff be- ge-|re, eu-|* re hülff be- ge-|* * re.|
w: gen, solch un- er-|hör- te pla-|gen, un-|* er- hör- te pla-|* * gen.|
V:3
"^3)""^1)""^4)" A4 D4- | D2 E2 G2 A2 | E4 E4 | A2 AB c4- | c2 C2 G4 | G2 G2 G3 G | G4 F4 | E8 | %8
w: Jung- frau|_ ihr habt ent-|zün- det|mein Hertz mit Lie-|* bes flam-|men, das sag ich|euch mit|Na-|
w: Zur noth|_ ein klei- ne|wei- le,|will ich mich wol|_ ge- dul-|den, wenn ich soll|sein in|hul-|
[M:2/4] A4 ::[M:4/4] z2 A2 A3 A |"^-natural" A2 D2 C4 | C2 c2 c2 d2 | e2 f2 e4 | A2 A4 GF | %14
w: men,|ich fül dasz|feur so seh-|re, drumb eu- re|hülff be- ge-|re, drumb eu- re|
w: den,|solt a- ber|nichts drausz wer-|den, ich wünscht mich|nicht auff Er-|den, ich wünscht mich|
 E2 D2 A4 | D2 F4 ED | C2 D2 E4- | E4 !fermata!A4 :| %18
w: hülff be- ge-|re, drumb eu- re|hülff be- ge-|* re.|
w: nicht auff Er-|den, ich wünscht mich|nicht auff Er-|* den.|

